static/assets/img/icons/theme/cooking/dish.svg

<svg height="24" viewBox="0 0 24 24" width="24" xmlns="http://www.w3.org/2000/svg"><g fill="none" fill-rule="evenodd"><path d="m0 0h24v24h-24z" opacity="0"/><g fill="#000"><path d="m12 21c-4.97056275 0-9-4.0294373-9-9 0-4.97056275 4.02943725-9 9-9 4.9705627 0 9 4.02943725 9 9 0 4.9705627-4.0294373 9-9 9zm0-3c3.3137085 0 6-2.6862915 6-6s-2.6862915-6-6-6-6 2.6862915-6 6 2.6862915 6 6 6z"/><path d="m12 16c2.209139 0 4-1.790861 4-4s-1.790861-4-4-4-4 1.790861-4 4 1.790861 4 4 4z" opacity=".3"/></g></g></svg>

<svg width="24px" height="24px" viewBox="0 0 24 24" version="1.1" xmlns="http://www.w3.org/2000/svg" xmlns:xlink="http://www.w3.org/1999/xlink">
    <title>Icon For Dish</title>
    <g stroke="none" stroke-width="1" fill="none" fill-rule="evenodd">
        <rect opacity="0" x="0" y="0" width="24" height="24"></rect>
        <path d="M12,21 C7.02943725,21 3,16.9705627 3,12 C3,7.02943725 7.02943725,3 12,3 C16.9705627,3 21,7.02943725 21,12 C21,16.9705627 16.9705627,21 12,21 Z M12,18 C15.3137085,18 18,15.3137085 18,12 C18,8.6862915 15.3137085,6 12,6 C8.6862915,6 6,8.6862915 6,12 C6,15.3137085 8.6862915,18 12,18 Z" fill="#000000"></path>
        <path d="M12,16 C14.209139,16 16,14.209139 16,12 C16,9.790861 14.209139,8 12,8 C9.790861,8 8,9.790861 8,12 C8,14.209139 9.790861,16 12,16 Z" fill="#000000" opacity="0.3"></path>
    </g>
</svg>
